images/products-tubs-icon-5.svg

<svg width="20" height="21" viewBox="0 0 20 21" fill="none" xmlns="http://www.w3.org/2000/svg">
<path d="M10.625 1.60547C10.625 1.26029 10.3452 0.980469 9.99997 0.980469C9.65477 0.980469 9.37497 1.26029 9.37497 1.60547V3.22159L8.5669 2.41353C8.32284 2.16945 7.9271 2.16945 7.68304 2.41353C7.43897 2.6576 7.43897 3.05334 7.68304 3.29741L9.37497 4.98936V7.23047C9.37497 7.2478 9.3757 7.26497 9.37704 7.28195C8.46884 7.43376 7.67117 7.912 7.10877 8.592C7.09464 8.5822 7.07997 8.57294 7.06484 8.5642L5.12399 7.44364L4.5047 5.1324C4.41536 4.79899 4.07265 4.60112 3.73923 4.69046C3.40582 4.7798 3.20795 5.12252 3.29729 5.45593L3.59306 6.55976L2.19346 5.7517C1.89453 5.57911 1.51228 5.68153 1.3397 5.98046C1.16711 6.2794 1.26953 6.66164 1.56846 6.83423L2.96806 7.64229L1.86423 7.93807C1.53082 8.0274 1.33295 8.37014 1.42229 8.70354C1.51163 9.03694 1.85434 9.2348 2.18776 9.14547L4.49899 8.5262L6.43986 9.64674C6.45472 9.65534 6.4698 9.6632 6.48504 9.67047C6.33298 10.0783 6.24986 10.5197 6.24986 10.9805C6.24986 11.4413 6.33298 11.8827 6.48504 12.2905C6.46981 12.2977 6.45475 12.3056 6.4399 12.3142L4.49903 13.4347L2.1878 12.8155C1.85438 12.7261 1.51167 12.924 1.42233 13.2574C1.33299 13.5908 1.53086 13.9335 1.86427 14.0229L2.9681 14.3187L1.5685 15.1267C1.26957 15.2993 1.16714 15.6815 1.33974 15.9805C1.51232 16.2794 1.89457 16.3818 2.1935 16.2092L3.5931 15.4012L3.29733 16.505C3.20799 16.8384 3.40586 17.1811 3.73927 17.2705C4.07269 17.3598 4.4154 17.1619 4.50474 16.8285L5.12403 14.5173L7.0649 13.3967C7.08004 13.388 7.09464 13.3787 7.10877 13.3689C7.67117 14.0489 8.46884 14.5272 9.37704 14.679C9.3757 14.6959 9.37497 14.7131 9.37497 14.7305V16.9716L7.68304 18.6635C7.43897 18.9076 7.43897 19.3033 7.68304 19.5474C7.9271 19.7915 8.32284 19.7915 8.5669 19.5474L9.37497 18.7393V20.3555C9.37497 20.7007 9.65477 20.9805 9.99997 20.9805C10.3452 20.9805 10.625 20.7007 10.625 20.3555V18.7393L11.433 19.5474C11.6771 19.7915 12.0728 19.7915 12.3169 19.5474C12.561 19.3033 12.561 18.9076 12.3169 18.6635L10.625 16.9716V14.7305C10.625 14.7131 10.6242 14.6959 10.6229 14.6789C11.531 14.5271 12.3287 14.0488 12.891 13.3689C12.9052 13.3787 12.9198 13.3879 12.935 13.3967L14.8759 14.5173L15.4952 16.8285C15.5846 17.1619 15.9272 17.3598 16.2607 17.2705C16.5941 17.1811 16.792 16.8384 16.7026 16.505L16.4068 15.4012L17.8064 16.2092C18.1054 16.3818 18.4876 16.2794 18.6602 15.9805C18.8328 15.6815 18.7304 15.2993 18.4314 15.1267L17.0318 14.3187L18.1357 14.0229C18.4691 13.9335 18.667 13.5908 18.5776 13.2574C18.4883 12.924 18.1456 12.7261 17.8122 12.8155L15.5009 13.4347L13.56 12.3142C13.5451 12.3056 13.53 12.2977 13.5147 12.2904C13.6668 11.8826 13.7498 11.4413 13.7498 10.9805C13.7498 10.5197 13.6668 10.0783 13.5147 9.67054C13.53 9.66327 13.5452 9.65534 13.5601 9.64674L15.501 8.5262L17.8122 9.14547C18.1456 9.2348 18.4883 9.03694 18.5776 8.70354C18.667 8.37014 18.4691 8.0274 18.1357 7.93807L17.0319 7.64229L18.4315 6.83423C18.7304 6.66164 18.8328 6.2794 18.6602 5.98046C18.4876 5.68153 18.1054 5.57911 17.8065 5.7517L16.4069 6.55976L16.7026 5.45593C16.792 5.12252 16.5941 4.7798 16.2607 4.69046C15.9273 4.60112 15.5846 4.79899 15.4952 5.1324L14.876 7.44364L12.9351 8.5642C12.9199 8.573 12.9052 8.58227 12.891 8.59207C12.3287 7.91214 11.531 7.43385 10.6229 7.28199C10.6242 7.265 10.625 7.24782 10.625 7.23047V4.98936L12.3169 3.29741C12.561 3.05334 12.561 2.6576 12.3169 2.41353C12.0728 2.16945 11.6771 2.16945 11.433 2.41353L10.625 3.22159V1.60547Z" fill="black"/>
</svg>

<svg width="20" height="21" fill="none" xmlns="http://www.w3.org/2000/svg"><path d="M10.625 1.605a.625.625 0 10-1.25 0v1.617l-.808-.808a.625.625 0 10-.884.883L9.375 4.99v2.24c0 .018 0 .035.002.052a3.746 3.746 0 00-2.268 1.31.63.63 0 00-.044-.028l-1.941-1.12-.62-2.312a.625.625 0 00-1.207.324l.296 1.104-1.4-.808a.625.625 0 10-.625 1.082l1.4.808-1.104.296a.625.625 0 00.324 1.207l2.311-.619 1.94 1.12c.016.01.03.017.046.024-.152.408-.235.85-.235 1.31 0 .461.083.903.235 1.31a.612.612 0 00-.045.024l-1.941 1.12-2.311-.618a.625.625 0 10-.324 1.207l1.104.296-1.4.808a.625.625 0 10.625 1.082l1.4-.808-.296 1.104a.625.625 0 001.208.323l.619-2.31 1.94-1.121a.612.612 0 00.045-.028 3.746 3.746 0 002.268 1.31.652.652 0 00-.002.051v2.242l-1.692 1.691a.625.625 0 00.884.884l.808-.808v1.616a.625.625 0 101.25 0V18.74l.808.808a.625.625 0 10.884-.884l-1.692-1.691V14.73c0-.017 0-.034-.002-.051a3.746 3.746 0 002.268-1.31l.044.028 1.94 1.12.62 2.311a.625.625 0 001.208-.323l-.296-1.104 1.4.808a.625.625 0 10.624-1.082l-1.4-.808 1.105-.296a.625.625 0 00-.324-1.207l-2.311.619-1.941-1.12a.653.653 0 00-.045-.025 3.74 3.74 0 00.235-1.31c0-.46-.083-.902-.235-1.31a.643.643 0 00.045-.023l1.941-1.12 2.311.618a.625.625 0 10.324-1.207l-1.104-.296 1.4-.808a.625.625 0 00-.625-1.082l-1.4.808.296-1.104a.625.625 0 10-1.208-.324l-.619 2.312-1.94 1.12a.658.658 0 00-.045.028 3.746 3.746 0 00-2.268-1.31.675.675 0 00.002-.052V4.99l1.692-1.693a.625.625 0 10-.884-.883l-.808.808V1.605z" fill="#000"/></svg>
